images/why-3.svg

<svg width="143" height="142" viewBox="0 0 143 142" fill="none" xmlns="http://www.w3.org/2000/svg">
<path d="M113.26 61.9802L96.7404 41.9802C96.6738 41.902 96.591 41.8388 96.4978 41.7957C96.4046 41.7525 96.3031 41.7303 96.2003 41.7302H46.6404C46.5391 41.7304 46.4391 41.7529 46.3475 41.7961C46.2559 41.8393 46.1749 41.9022 46.1104 41.9802L29.5903 61.9802C29.4889 62.1064 29.4336 62.2632 29.4336 62.425C29.4336 62.5869 29.4889 62.7437 29.5903 62.8699L70.8904 112.92C70.937 112.971 70.991 113.015 71.0504 113.05H71.1204C71.2028 113.085 71.2908 113.106 71.3804 113.11C71.4699 113.106 71.5579 113.085 71.6404 113.05H71.7103L71.8704 112.92L113.17 62.8699C113.285 62.7544 113.357 62.6032 113.373 62.4412C113.39 62.2791 113.35 62.1164 113.26 61.9802ZM82.7303 63.1199L71.4104 109.59L59.7203 63.1199H82.7303ZM60.0903 61.7302L71.4104 43.7302L82.4104 61.7302H60.0903ZM96.2804 43.5798L111.28 61.7302H84.8904L96.2804 43.5798ZM83.6204 61.1101L72.6204 43.1101H94.9104L83.6204 61.1101ZM58.8403 61.1101L47.8403 43.1101H70.1304L58.8403 61.1101ZM57.6003 61.7302H31.6003L46.6003 43.5999L57.6003 61.7302ZM58.2904 63.1199L70.0004 109.67L31.6003 63.1199H58.2904ZM84.1504 63.1199H111.25L72.8104 109.71L84.1504 63.1199Z" fill="black"/>
<path d="M71.3896 141.74C62.0795 141.763 52.8571 139.94 44.2559 136.377C35.6547 132.814 27.8455 127.581 21.2796 120.98C14.6804 114.414 9.4486 106.604 5.88693 98.0025C2.32525 89.4013 0.504358 80.1791 0.529626 70.8697C0.501186 61.5615 2.31867 52.34 5.87692 43.7388C9.43516 35.1376 14.6635 27.3275 21.2596 20.7598C27.8241 14.1574 35.6332 8.92292 44.2347 5.35942C52.8362 1.79592 62.0592 -0.0255688 71.3696 4.56837e-05C80.6802 -0.0266741 89.9034 1.79439 98.5051 5.35796C107.107 8.92152 114.916 14.1565 121.48 20.7598C128.083 27.3236 133.318 35.1328 136.882 43.7344C140.445 52.3361 142.266 61.5591 142.24 70.8697C142.265 80.1801 140.443 89.4034 136.88 98.0049C133.316 106.606 128.082 114.416 121.48 120.98C114.916 127.579 107.11 132.811 98.5128 136.374C89.9151 139.937 80.6964 141.761 71.3896 141.74ZM71.3896 1.38969C62.2615 1.36332 53.2187 3.14848 44.7854 6.64165C36.352 10.1348 28.6956 15.2666 22.2596 21.7398C15.7864 28.1758 10.6546 35.8323 7.16146 44.2657C3.6683 52.699 1.88325 61.7415 1.90963 70.8697C1.88325 79.9978 3.6683 89.0408 7.16146 97.4742C10.6546 105.908 15.7864 113.564 22.2596 120C28.6956 126.473 36.352 131.605 44.7854 135.098C53.2187 138.591 62.2615 140.376 71.3896 140.35C80.5178 140.376 89.5604 138.591 97.9937 135.098C106.427 131.605 114.084 126.473 120.52 120C126.993 113.564 132.125 105.908 135.618 97.4742C139.111 89.0408 140.896 79.9978 140.87 70.8697C140.896 61.7415 139.111 52.699 135.618 44.2657C132.125 35.8323 126.993 28.1758 120.52 21.7398C114.084 15.2666 106.427 10.1348 97.9937 6.64165C89.5604 3.14848 80.5178 1.36332 71.3896 1.38969Z" fill="black"/>
</svg>

<svg width="143" height="142" fill="none" xmlns="http://www.w3.org/2000/svg"><path d="M113.26 61.98l-16.52-20a.711.711 0 00-.54-.25H46.64a.69.69 0 00-.53.25l-16.52 20a.71.71 0 000 .89l41.3 50.05a.713.713 0 00.16.13h.07c.083.035.17.056.26.06a.753.753 0 00.26-.06h.07l.16-.13 41.3-50.05a.706.706 0 00.09-.89zm-30.53 1.14l-11.32 46.47-11.69-46.47h23.01zm-22.64-1.39l11.32-18 11 18H60.09zm36.19-18.15l15 18.15H84.89l11.39-18.15zM83.62 61.11l-11-18h22.29l-11.29 18zm-24.78 0l-11-18h22.29l-11.29 18zm-1.24.62h-26l15-18.13 11 18.13zm.69 1.39L70 109.67 31.6 63.12h26.69zm25.86 0h27.1l-38.44 46.59 11.34-46.59z" fill="#000"/><path d="M71.39 141.74a70.445 70.445 0 01-50.11-20.76A70.416 70.416 0 01.53 70.87a70.41 70.41 0 0120.73-50.11A70.39 70.39 0 0171.37 0a70.37 70.37 0 0150.11 20.76 70.382 70.382 0 0120.76 50.11 70.402 70.402 0 01-20.76 50.11 70.424 70.424 0 01-50.09 20.76zm0-140.35a69 69 0 00-49.13 20.35A69 69 0 001.91 70.87 69.002 69.002 0 0022.26 120a69 69 0 0049.13 20.35A69.01 69.01 0 00120.52 120a68.995 68.995 0 0020.35-49.13 69.009 69.009 0 00-20.35-49.13A69.002 69.002 0 0071.39 1.39z" fill="#000"/></svg>
